media/img/firefox/landing/year-in-review/fx_Nothing-Personal_Sticker_Heart.svg

<svg width="69" height="61" viewBox="0 0 69 61" fill="none" xmlns="http://www.w3.org/2000/svg">
<g clip-path="url(#clip0_309_2167)">
<path d="M60.5742 8.66074C59.0764 7.18315 57.2979 6.01102 55.3405 5.21131C53.3831 4.41161 51.2851 4 49.1663 4C47.0475 4 44.9495 4.41161 42.9921 5.21131C41.0347 6.01102 39.2562 7.18315 37.7584 8.66074L34.6498 11.7258L31.5412 8.66074C28.5156 5.67751 24.4121 4.00155 20.1333 4.00155C15.8545 4.00155 11.7509 5.67751 8.72532 8.66074C5.69975 11.644 4 15.6901 4 19.909C4 24.1279 5.69975 28.1741 8.72532 31.1573L11.8339 34.2224L34.6498 56.719L57.4657 34.2224L60.5742 31.1573C62.0728 29.6804 63.2616 27.9269 64.0726 25.9968C64.8837 24.0668 65.3011 21.9982 65.3011 19.909C65.3011 17.8199 64.8837 15.7512 64.0726 13.8212C63.2616 11.8912 62.0728 10.1376 60.5742 8.66074Z" fill="white" stroke="white" stroke-width="7" stroke-linecap="round" stroke-linejoin="round"/>
<path d="M60.5742 8.66074C59.0764 7.18315 57.2979 6.01102 55.3405 5.21131C53.3831 4.41161 51.2851 4 49.1663 4C47.0475 4 44.9495 4.41161 42.9921 5.21131C41.0347 6.01102 39.2562 7.18315 37.7584 8.66074L34.6498 11.7258L31.5412 8.66074C28.5156 5.67751 24.4121 4.00155 20.1333 4.00155C15.8545 4.00155 11.7509 5.67751 8.72532 8.66074C5.69975 11.644 4 15.6901 4 19.909C4 24.1279 5.69975 28.1741 8.72532 31.1573L11.8339 34.2224L34.6498 56.719L57.4657 34.2224L60.5742 31.1573C62.0728 29.6804 63.2616 27.9269 64.0726 25.9968C64.8837 24.0668 65.3011 21.9982 65.3011 19.909C65.3011 17.8199 64.8837 15.7512 64.0726 13.8212C63.2616 11.8912 62.0728 10.1376 60.5742 8.66074Z" fill="#FF4F5F"/>
<path d="M60.5742 8.66074C59.0764 7.18315 57.2979 6.01102 55.3405 5.21131C53.3831 4.41161 51.2851 4 49.1663 4C47.0475 4 44.9495 4.41161 42.9921 5.21131C41.0347 6.01102 39.2562 7.18315 37.7584 8.66074L34.6498 11.7258L31.5412 8.66074C28.5156 5.67751 24.4121 4.00155 20.1333 4.00155C15.8545 4.00155 11.7509 5.67751 8.72532 8.66074C5.69975 11.644 4 15.6901 4 19.909C4 24.1279 5.69975 28.1741 8.72532 31.1573L11.8339 34.2224L34.6498 56.719L57.4657 34.2224L60.5742 31.1573C62.0728 29.6804 63.2616 27.9269 64.0726 25.9968C64.8837 24.0668 65.3011 21.9982 65.3011 19.909C65.3011 17.8199 64.8837 15.7512 64.0726 13.8212C63.2616 11.8912 62.0728 10.1376 60.5742 8.66074Z" stroke="black" stroke-width="1.3" stroke-linecap="round" stroke-linejoin="round"/>
<path d="M60.5742 8.66074C59.0764 7.18315 57.2979 6.01102 55.3405 5.21131C53.3831 4.41161 51.2851 4 49.1663 4C47.0475 4 44.9495 4.41161 42.9921 5.21131C41.0347 6.01102 39.2562 7.18315 37.7584 8.66074L34.6498 11.7258L31.5412 8.66074C28.5156 5.67751 24.4121 4.00155 20.1333 4.00155C15.8545 4.00155 11.7509 5.67751 8.72532 8.66074C5.69975 11.644 4 15.6901 4 19.909C4 24.1279 5.69975 28.1741 8.72532 31.1573L11.8339 34.2224L34.6498 56.719L57.4657 34.2224L60.5742 31.1573C62.0728 29.6804 63.2616 27.9269 64.0726 25.9968C64.8837 24.0668 65.3011 21.9982 65.3011 19.909C65.3011 17.8199 64.8837 15.7512 64.0726 13.8212C63.2616 11.8912 62.0728 10.1376 60.5742 8.66074Z" stroke="black" stroke-width="1.3" stroke-linecap="round" stroke-linejoin="round"/>
</g>
<defs>
<clipPath id="clip0_309_2167">
<rect width="69" height="61" fill="white"/>
</clipPath>
</defs>
</svg>

<svg xmlns="http://www.w3.org/2000/svg" width="69" height="61" fill="none" viewBox="0 0 69 61"><g clip-path="url(#a)"><path fill="#fff" stroke="#fff" stroke-linecap="round" stroke-linejoin="round" stroke-width="7" d="M60.574 8.66a16.2 16.2 0 0 0-5.233-3.449 16.33 16.33 0 0 0-12.349 0 16.2 16.2 0 0 0-5.234 3.45l-3.108 3.065-3.11-3.066A16.25 16.25 0 0 0 20.133 4 16.25 16.25 0 0 0 8.725 8.66 15.8 15.8 0 0 0 4 19.909c0 4.219 1.7 8.265 4.725 11.248l3.109 3.065L34.65 56.72l22.816-22.497 3.108-3.065a15.9 15.9 0 0 0 3.499-5.16 15.7 15.7 0 0 0 0-12.176 15.9 15.9 0 0 0-3.499-5.16"/><path fill="#ff4f5f" d="M60.574 8.66a16.2 16.2 0 0 0-5.233-3.449 16.33 16.33 0 0 0-12.349 0 16.2 16.2 0 0 0-5.234 3.45l-3.108 3.065-3.11-3.066A16.25 16.25 0 0 0 20.133 4 16.25 16.25 0 0 0 8.725 8.66 15.8 15.8 0 0 0 4 19.909c0 4.219 1.7 8.265 4.725 11.248l3.109 3.065L34.65 56.72l22.816-22.497 3.108-3.065a15.9 15.9 0 0 0 3.499-5.16 15.7 15.7 0 0 0 0-12.176 15.9 15.9 0 0 0-3.499-5.16"/><use stroke-linecap="round" stroke-linejoin="round" stroke-width="1.3" href="#b"/><use stroke-linecap="round" stroke-linejoin="round" stroke-width="1.3" href="#b"/></g><defs><clipPath id="a"><path fill="#fff" d="M0 0h69v61H0z"/></clipPath><path id="b" stroke="#000" d="M60.574 8.66a16.2 16.2 0 0 0-5.233-3.449 16.33 16.33 0 0 0-12.349 0 16.2 16.2 0 0 0-5.234 3.45l-3.108 3.065-3.11-3.066A16.25 16.25 0 0 0 20.133 4 16.25 16.25 0 0 0 8.725 8.66 15.8 15.8 0 0 0 4 19.909c0 4.219 1.7 8.265 4.725 11.248l3.109 3.065L34.65 56.72l22.816-22.497 3.108-3.065a15.9 15.9 0 0 0 3.499-5.16 15.7 15.7 0 0 0 0-12.176 15.9 15.9 0 0 0-3.499-5.16"/></defs></svg>
